X:1
T:Title
%%score ( 1 2 ) { 3 | 4 }
L:1/8
Q:1/4=104
M:4/4
K:Ab
V:1 treble nm="Grand Piano, Soprano"
V:2 treble 
V:3 bass nm="Choir Pad, Bass"
V:4 bass 
V:1
 [CA][DB] [Ec]2 [Ec]2 [Fd]2 | [Ec][=EB] [FA]2 [DF]2 [C_E]2 | CDEF GA B2 | E2 [Ec]6 | %4
w: By~John~Robson~Sweney * * * *||||
 [CA][DB] [Ec]2 [Ec]2 [Fd]2 | [Ec][=EB] [FA]2 [DF]2 [C_E]2 | CDEF GA [Ac]2 | [GB]2 [EA]6 | %8
w: ||||
 [EA]>[EA] [EG]2 [EG]2 [EG]2 | [EG]>[EG] [EA]2 [EA]2 [EA]2 | [Ec]>[Ec] [Ed]2 [Ed]>[Ed] [Ec]2 | %11
w: |||
 [Ac]2 [GB]6 | [Ec]>[Ed] [Ee]2 [Ee]2 [EA]2 | [EB][_Gc] [Fd]2 [Fd]2 [DF]2 | %14
w: |||
 [Fd]2 [Ec]2 [EB][EA] [EG]2 | [EB]2 [EA]6 | z2 e6 | z2 e6 | EEAG AB c2 | z2 e6 | %20
w: ||||||
 E2 [Ec]2 [Ec]2 [Fd]2 | [Ec][=EB] [FA]2 [FA]2 [FB]2 | [FA][DF] [CE]2 [EA][Ac] [Ge]2 | %23
w: |||
 [EG]2 [EA]6- | [EA]2 z2 z4 |] %25
w: ||
V:2
 x8 | x8 | x8 | x8 | x8 | x8 | x8 | x8 | x8 | x8 | x8 | x8 | x8 | x8 | x8 | x8 | Ac z2 A2 A2 | %17
 Bd z2 B2 A2 | x8 | A2 G2 A2 G2 | x8 | x8 | x8 | x8 | x8 |] %25
V:3
 E,E, A,2 A,2 A,2 | A,A, A,2 A,2 A,2 | C,D,E,F, G,A, B,2 | E,2 A,6 | E,E, A,2 A,2 A,2 | %5
 A,A, A,2 A,2 A,2 | C,D,E,F, G,A,[K:treble] E2 | D2 C6 | C>C[K:bass] B,2 B,2 B,2 | %9
 B,>B, A,2 A,2 A,2 | A,>A, B,2 B,>B, A,2 | E2 E6 | A,>B, C2 C2 C2 | B,A, A,2 A,2 A,2 | %14
 A,2 A,2[K:treble] DC B,2 | D2 C6 | z4 C2 B,2 | z4[K:bass] D2 C2 | E,E,A,G, A,B, C2 | %19
 A,2 B,2 C2 B,2 | B,2 A,2 A,2 A,2 | A,A, A,2[K:treble] D2 D2 | DA, A,2 C2 B,2 | D2 C6- | %24
 C2 z2 z4 |] %25
V:4
 A,,A,, A,,2 A,,2 A,,2 | C,C, D,2 F,2 z2 | z8 | z2 A,,6 | A,,A,, A,,2 A,,2 A,,2 | C,C, D,2 F,2 z2 | %6
 z4 z2 E,2 | E,2 A,,6 | A,>A, E,2 E,2 E,2 | D,>D, C,2 C,2 C,2 | z2 G,2 G,>G, z2 | A,2 E,6 | %12
 z z/ A,/ A,2 A,2 A,2 | .G,2 D,2 D,2 D,2 | D,2 E,2 E,E, E,2 | E,2 A,,6 | z4 A,2 E,2 | z4 E,2 A,2 | %18
 z8 | z2 E,2 A,2 E,2 | G,2 z2 z4 | C,C, D,2 D,2 D,2 | D,D, E,2 E,2 E,2 | E,2 A,,6- | A,,2 z2 z4 |] %25

